; generated by PrusaSlicer 2.0.0+win64 on 2019-09-02 at 11:20:30

; 

; external perimeters extrusion width = 0.45mm
; perimeters extrusion width = 0.45mm
; infill extrusion width = 0.45mm
; solid infill extrusion width = 0.45mm
; top infill extrusion width = 0.40mm
; first layer extrusion width = 0.42mm

M73 P0 R25
M73 Q0 S25
M201 X1000 Y1000 Z1000 E5000 ; sets maximum accelerations, mm/sec^2
M203 X200 Y200 Z12 E120 ; sets maximum feedrates, mm/sec
M204 P1250 R1250 T1250 ; sets acceleration (P, T) and retract acceleration (R), mm/sec^2
M205 X8.00 Y8.00 Z0.40 E1.50 ; sets the jerk limits, mm/sec
M205 S0 T0 ; sets the minimum extruding and travel feed rate, mm/sec
M107
M115 U3.7.2 ; tell printer latest fw version
G90 ; use absolute coordinates
M83 ; extruder relative mode
M104 S215 ; set extruder temp
M140 S60 ; set bed temp
M190 S60 ; wait for bed temp
M109 S215 ; wait for extruder temp
G28 W ; home all without mesh bed level
G80 ; mesh bed leveling
G1 Y-3.0 F1000.0 ; go outside print area
G92 E0.0
G1 X60.0 E9.0 F1000.0 ; intro line
M73 Q0 S25
M73 P0 R25
G1 X100.0 E12.5 F1000.0 ; intro line
G92 E0.0
M221 S95
M900 K30 ; Filament gcode
G21 ; set units to millimeters
G90 ; use absolute coordinates
M83 ; use relative distances for extrusion
;BEFORE_LAYER_CHANGE
G92 E0.0
;0.2


G1 E-0.80000 F2100.00000
G1 Z0.600 F10800.000
;AFTER_LAYER_CHANGE
;0.2
G1 X100.345 Y74.216
G1 Z0.200
G1 E0.80000 F2100.00000
M204 S1000
G1 F1200
G1 X100.651 Y73.616 E0.02112
G1 X100.993 Y73.242 E0.01589
G1 X101.410 Y72.959 E0.01578
G1 X101.883 Y72.778 E0.01589
G1 X102.382 Y72.710 E0.01578
G1 X147.580 Y72.710 E1.41716
G1 X148.403 Y72.872 E0.02631
G1 X149.105 Y73.332 E0.02631
G1 X149.582 Y74.023 E0.02631
G1 X149.764 Y74.838 E0.02620
G1 X149.765 Y135.116 E1.88998
G1 X149.655 Y135.784 E0.02123
G1 X149.349 Y136.384 E0.02112
G1 X149.004 Y136.760 E0.01601
G1 X148.581 Y137.046 E0.01601
G1 X148.103 Y137.226 E0.01601
G1 X147.600 Y137.290 E0.01589
G1 X102.406 Y137.290 E1.41704
G1 X101.741 Y137.181 E0.02112
G1 X101.141 Y136.875 E0.02112
G1 X100.765 Y136.529 E0.01601
G1 X100.480 Y136.106 E0.01601
G1 X100.299 Y135.625 E0.01612
G1 X100.235 Y135.118 E0.01601
G1 X100.235 Y74.884 E1.88860
G1 X100.335 Y74.275 E0.01935
G1 F8640
G1 X100.651 Y73.616 E-0.16875
G1 X100.993 Y73.242 E-0.11704
G1 X101.410 Y72.959 E-0.11620
G1 X101.883 Y72.778 E-0.11704
G1 X102.382 Y72.710 E-0.11620
G1 X102.922 Y72.710 E-0.12476
G1 E-0.04000 F2100.00000
G1 Z0.800 F10800.000
G1 X103.011 Y75.486
G1 Z0.200
G1 E0.80000 F2100.00000
G1 F1200
G1 X146.989 Y75.486 E1.37890
G1 X146.989 Y134.514 E1.85080
G1 X103.011 Y134.514 E1.37890
G1 X103.011 Y75.546 E1.84892
G1 X102.634 Y75.109 F10800.000
G1 F1200
G1 X147.366 Y75.109 E1.40254
G1 X147.366 Y134.891 E1.87445
G1 X102.634 Y134.891 E1.40254
G1 X102.634 Y75.169 E1.87256
G1 X103.015 Y75.230 F10800.000
G1 F8640
G1 X105.925 Y75.164 E-0.76000
G1 E-0.04000 F2100.00000
G1 Z0.800 F10800.000
G1 X146.876 Y76.363
G1 Z0.200
G1 E0.80000 F2100.00000
G1 F1200
G1 X146.281 Y75.768 E0.02642
G1 X145.747 Y75.768 E0.01680
G1 X146.706 Y76.728 E0.04264
G1 X146.706 Y77.262 E0.01680
G1 X145.212 Y75.768 E0.06640
G1 X144.678 Y75.768 E0.01680
G1 X146.706 Y77.797 E0.09015
G1 X146.706 Y78.331 E0.01680
G1 X144.143 Y75.768 E0.11391
G1 X143.609 Y75.768 E0.01680
G1 X146.706 Y78.866 E0.13767
G1 X146.706 Y79.400 E0.01680
G1 X143.074 Y75.768 E0.16143
G1 X142.540 Y75.768 E0.01680
G1 X146.706 Y79.935 E0.18518
G1 X146.706 Y80.469 E0.01680
G1 X142.005 Y75.768 E0.20894
G1 X141.471 Y75.768 E0.01680
G1 X146.706 Y81.004 E0.23270
G1 X146.706 Y81.539 E0.01680
G1 X140.936 Y75.768 E0.25646
G1 X140.402 Y75.768 E0.01680
G1 X146.706 Y82.073 E0.28021
G1 X146.706 Y82.608 E0.01680
G1 X139.867 Y75.768 E0.30397
G1 X139.333 Y75.768 E0.01680
G1 X146.706 Y83.142 E0.32773
G1 X146.706 Y83.677 E0.01680
G1 X138.798 Y75.768 E0.35149
G1 X138.263 Y75.768 E0.01680
G1 X146.706 Y84.211 E0.37525
G1 X146.706 Y84.746 E0.01680
G1 X137.729 Y75.768 E0.39900
G1 X137.194 Y75.768 E0.01680
G1 X146.706 Y85.280 E0.42276
G1 X146.706 Y85.815 E0.01680
G1 X136.660 Y75.768 E0.44652
G1 X136.125 Y75.768 E0.01680
G1 X146.706 Y86.349 E0.47028
G1 X146.706 Y86.884 E0.01680
G1 X135.591 Y75.768 E0.49403
G1 X135.056 Y75.768 E0.01680
G1 X146.706 Y87.418 E0.51779
G1 X146.706 Y87.953 E0.01680
G1 X134.522 Y75.768 E0.54155
G1 X133.987 Y75.768 E0.01680
G1 X146.706 Y88.487 E0.56531
G1 X146.706 Y89.022 E0.01680
G1 X133.453 Y75.768 E0.58906
G1 X132.918 Y75.768 E0.01680
G1 X146.706 Y89.556 E0.61282
G1 X146.706 Y90.091 E0.01680
G1 X132.384 Y75.768 E0.63658
G1 X131.849 Y75.768 E0.01680
G1 X146.706 Y90.626 E0.66034
G1 X146.706 Y91.160 E0.01680
G1 X131.315 Y75.768 E0.68410
G1 X130.780 Y75.768 E0.01680
G1 X146.706 Y91.695 E0.70785
G1 X146.706 Y92.229 E0.01680
G1 X130.246 Y75.768 E0.73161
G1 X129.711 Y75.768 E0.01680
G1 X146.706 Y92.764 E0.75537
G1 X146.706 Y93.298 E0.01680
G1 X129.177 Y75.768 E0.77913
G1 X128.642 Y75.768 E0.01680
G1 X146.706 Y93.833 E0.80288
M73 Q4 S24
G1 X146.706 Y94.367 E0.01680
G1 X128.107 Y75.768 E0.82664
M73 P4 R24
G1 X127.573 Y75.768 E0.01680
G1 X146.706 Y94.902 E0.85040
G1 X146.706 Y95.436 E0.01680
G1 X127.038 Y75.768 E0.87416
G1 X126.504 Y75.768 E0.01680
G1 X146.706 Y95.971 E0.89791
G1 X146.706 Y96.505 E0.01680
G1 X125.969 Y75.768 E0.92167
G1 X125.435 Y75.768 E0.01680
G1 X146.706 Y97.040 E0.94543
G1 X146.706 Y97.574 E0.01680
G1 X124.900 Y75.768 E0.96919
G1 X124.366 Y75.768 E0.01680
G1 X146.706 Y98.109 E0.99295
G1 X146.706 Y98.643 E0.01680
G1 X123.831 Y75.768 E1.01670
G1 X123.297 Y75.768 E0.01680
G1 X146.706 Y99.178 E1.04046
G1 X146.706 Y99.712 E0.01680
G1 X122.762 Y75.768 E1.06422
G1 X122.228 Y75.768 E0.01680
G1 X146.706 Y100.247 E1.08798
G1 X146.706 Y100.782 E0.01680
G1 X121.693 Y75.768 E1.11173
G1 X121.159 Y75.768 E0.01680
G1 X146.706 Y101.316 E1.13549
G1 X146.706 Y101.851 E0.01680
G1 X120.624 Y75.768 E1.15925
G1 X120.090 Y75.768 E0.01680
G1 X146.706 Y102.385 E1.18301
G1 X146.706 Y102.920 E0.01680
G1 X119.555 Y75.768 E1.20676
G1 X119.020 Y75.768 E0.01680
G1 X146.706 Y103.454 E1.23052
G1 X146.706 Y103.989 E0.01680
G1 X118.486 Y75.768 E1.25428
G1 X117.951 Y75.768 E0.01680
G1 X146.706 Y104.523 E1.27804
G1 X146.706 Y105.058 E0.01680
G1 X117.417 Y75.768 E1.30180
G1 X116.882 Y75.768 E0.01680
G1 X146.706 Y105.592 E1.32555
G1 X146.706 Y106.127 E0.01680
G1 X116.348 Y75.768 E1.34931
G1 X115.813 Y75.768 E0.01680
G1 X146.706 Y106.661 E1.37307
G1 X146.706 Y107.196 E0.01680
G1 X115.279 Y75.768 E1.39683
G1 X114.744 Y75.768 E0.01680
G1 X146.706 Y107.730 E1.42058
G1 X146.706 Y108.265 E0.01680
G1 X114.210 Y75.768 E1.44434
G1 X113.675 Y75.768 E0.01680
G1 X146.706 Y108.799 E1.46810
G1 X146.706 Y109.334 E0.01680
G1 X113.141 Y75.768 E1.49186
G1 X112.606 Y75.768 E0.01680
G1 X146.706 Y109.869 E1.51561
G1 X146.706 Y110.403 E0.01680
G1 X112.072 Y75.768 E1.53937
G1 X111.537 Y75.768 E0.01680
G1 X146.706 Y110.938 E1.56313
M73 Q8 S23
M73 P8 R23
G1 X146.706 Y111.472 E0.01680
G1 X111.003 Y75.768 E1.58689
G1 X110.468 Y75.768 E0.01680
G1 X146.706 Y112.007 E1.61064
G1 X146.706 Y112.541 E0.01680
G1 X109.934 Y75.768 E1.63440
G1 X109.399 Y75.768 E0.01680
G1 X146.706 Y113.076 E1.65816
G1 X146.706 Y113.610 E0.01680
G1 X108.864 Y75.768 E1.68192
G1 X108.330 Y75.768 E0.01680
G1 X146.706 Y114.145 E1.70568
G1 X146.706 Y114.679 E0.01680
G1 X107.795 Y75.768 E1.72943
G1 X107.261 Y75.768 E0.01680
G1 X146.706 Y115.214 E1.75319
G1 X146.706 Y115.748 E0.01680
G1 X106.726 Y75.768 E1.77695
G1 X106.192 Y75.768 E0.01680
G1 X146.706 Y116.283 E1.80071
G1 X146.706 Y116.817 E0.01680
G1 X105.657 Y75.768 E1.82446
G1 X105.123 Y75.768 E0.01680
G1 X146.706 Y117.352 E1.84822
G1 X146.706 Y117.886 E0.01680
G1 X104.588 Y75.768 E1.87198
G1 X104.054 Y75.768 E0.01680
G1 X146.706 Y118.421 E1.89574
G1 X146.706 Y118.955 E0.01680
G1 X103.519 Y75.768 E1.91949
G1 X103.294 Y75.768 E0.00708
G1 X103.294 Y76.078 E0.00972
G1 X146.706 Y119.490 E1.92951
G1 X146.706 Y120.025 E0.01680
G1 X103.294 Y76.612 E1.92951
G1 X103.294 Y77.147 E0.01680
G1 X146.706 Y120.559 E1.92951
G1 X146.706 Y121.094 E0.01680
G1 X103.294 Y77.681 E1.92951
G1 X103.294 Y78.216 E0.01680
G1 X146.706 Y121.628 E1.92951
G1 X146.706 Y122.163 E0.01680
G1 X103.294 Y78.750 E1.92951
M73 Q12 S22
M73 P12 R22
G1 X103.294 Y79.285 E0.01680
G1 X146.706 Y122.697 E1.92951
G1 X146.706 Y123.232 E0.01680
G1 X103.294 Y79.819 E1.92951
G1 X103.294 Y80.354 E0.01680
G1 X146.706 Y123.766 E1.92951
G1 X146.706 Y124.301 E0.01680
G1 X103.294 Y80.888 E1.92951
G1 X103.294 Y81.423 E0.01680
G1 X146.706 Y124.835 E1.92951
G1 X146.706 Y125.370 E0.01680
G1 X103.294 Y81.957 E1.92951
G1 X103.294 Y82.492 E0.01680
G1 X146.706 Y125.904 E1.92951
G1 X146.706 Y126.439 E0.01680
G1 X103.294 Y83.027 E1.92951
G1 X103.294 Y83.561 E0.01680
G1 X146.706 Y126.973 E1.92951
G1 X146.706 Y127.508 E0.01680
G1 X103.294 Y84.096 E1.92951
G1 X103.294 Y84.630 E0.01680
G1 X146.706 Y128.042 E1.92951
G1 X146.706 Y128.577 E0.01680
G1 X103.294 Y85.165 E1.92951
G1 X103.294 Y85.699 E0.01680
G1 X146.706 Y129.111 E1.92951
G1 X146.706 Y129.646 E0.01680
G1 X103.294 Y86.234 E1.92951
G1 X103.294 Y86.768 E0.01680
G1 X146.706 Y130.181 E1.92951
G1 X146.706 Y130.715 E0.01680
G1 X103.294 Y87.303 E1.92951
G1 X103.294 Y87.837 E0.01680
G1 X146.706 Y131.250 E1.92951
G1 X146.706 Y131.784 E0.01680
G1 X103.294 Y88.372 E1.92951
G1 X103.294 Y88.906 E0.01680
G1 X146.706 Y132.319 E1.92951
G1 X146.706 Y132.853 E0.01680
G1 X103.294 Y89.441 E1.92951
M73 Q16 S21
M73 P16 R21
G1 X103.294 Y89.975 E0.01680
G1 X146.706 Y133.388 E1.92951
G1 X146.706 Y133.922 E0.01680
G1 X103.294 Y90.510 E1.92951
G1 X103.294 Y91.044 E0.01680
G1 X146.481 Y134.232 E1.91950
G1 X145.946 Y134.232 E0.01680
G1 X103.294 Y91.579 E1.89574
G1 X103.294 Y92.113 E0.01680
G1 X145.412 Y134.232 E1.87198
G1 X144.877 Y134.232 E0.01680
G1 X103.294 Y92.648 E1.84823
G1 X103.294 Y93.183 E0.01680
G1 X144.343 Y134.232 E1.82447
G1 X143.808 Y134.232 E0.01680
G1 X103.294 Y93.717 E1.80071
G1 X103.294 Y94.252 E0.01680
G1 X143.274 Y134.232 E1.77695
G1 X142.739 Y134.232 E0.01680
G1 X103.294 Y94.786 E1.75319
G1 X103.294 Y95.321 E0.01680
G1 X142.205 Y134.232 E1.72944
G1 X141.670 Y134.232 E0.01680
G1 X103.294 Y95.855 E1.70568
G1 X103.294 Y96.390 E0.01680
G1 X141.136 Y134.232 E1.68192
G1 X140.601 Y134.232 E0.01680
G1 X103.294 Y96.924 E1.65816
G1 X103.294 Y97.459 E0.01680
G1 X140.067 Y134.232 E1.63441
G1 X139.532 Y134.232 E0.01680
G1 X103.294 Y97.993 E1.61065
G1 X103.294 Y98.528 E0.01680
G1 X138.998 Y134.232 E1.58689
G1 X138.463 Y134.232 E0.01680
G1 X103.294 Y99.062 E1.56313
G1 X103.294 Y99.597 E0.01680
G1 X137.928 Y134.232 E1.53938
G1 X137.394 Y134.232 E0.01680
G1 X103.294 Y100.131 E1.51562
G1 X103.294 Y100.666 E0.01680
G1 X136.859 Y134.232 E1.49186
G1 X136.325 Y134.232 E0.01680
G1 X103.294 Y101.200 E1.46810
M73 Q20 S20
M73 P20 R20
G1 X103.294 Y101.735 E0.01680
G1 X135.790 Y134.232 E1.44434
G1 X135.256 Y134.232 E0.01680
G1 X103.294 Y102.270 E1.42059
G1 X103.294 Y102.804 E0.01680
G1 X134.721 Y134.232 E1.39683
G1 X134.187 Y134.232 E0.01680
G1 X103.294 Y103.339 E1.37307
G1 X103.294 Y103.873 E0.01680
G1 X133.652 Y134.232 E1.34931
G1 X133.118 Y134.232 E0.01680
G1 X103.294 Y104.408 E1.32556
G1 X103.294 Y104.942 E0.01680
G1 X132.583 Y134.232 E1.30180
G1 X132.049 Y134.232 E0.01680
G1 X103.294 Y105.477 E1.27804
G1 X103.294 Y106.011 E0.01680
G1 X131.514 Y134.232 E1.25428
G1 X130.980 Y134.232 E0.01680
G1 X103.294 Y106.546 E1.23053
G1 X103.294 Y107.080 E0.01680
G1 X130.445 Y134.232 E1.20677
G1 X129.911 Y134.232 E0.01680
G1 X103.294 Y107.615 E1.18301
G1 X103.294 Y108.149 E0.01680
G1 X129.376 Y134.232 E1.15925
G1 X128.841 Y134.232 E0.01680
G1 X103.294 Y108.684 E1.13549
G1 X103.294 Y109.218 E0.01680
G1 X128.307 Y134.232 E1.11174
G1 X127.772 Y134.232 E0.01680
G1 X103.294 Y109.753 E1.08798
G1 X103.294 Y110.287 E0.01680
G1 X127.238 Y134.232 E1.06422
G1 X126.703 Y134.232 E0.01680
G1 X103.294 Y110.822 E1.04046
G1 X103.294 Y111.356 E0.01680
G1 X126.169 Y134.232 E1.01671
G1 X125.634 Y134.232 E0.01680
G1 X103.294 Y111.891 E0.99295
G1 X103.294 Y112.426 E0.01680
G1 X125.100 Y134.232 E0.96919
G1 X124.565 Y134.232 E0.01680
G1 X103.294 Y112.960 E0.94543
G1 X103.294 Y113.495 E0.01680
G1 X124.031 Y134.232 E0.92168
G1 X123.496 Y134.232 E0.01680
G1 X103.294 Y114.029 E0.89792
G1 X103.294 Y114.564 E0.01680
G1 X122.962 Y134.232 E0.87416
G1 X122.427 Y134.232 E0.01680
G1 X103.294 Y115.098 E0.85040
G1 X103.294 Y115.633 E0.01680
G1 X121.893 Y134.232 E0.82664
G1 X121.358 Y134.232 E0.01680
G1 X103.294 Y116.167 E0.80289
G1 X103.294 Y116.702 E0.01680
G1 X120.824 Y134.232 E0.77913
G1 X120.289 Y134.232 E0.01680
G1 X103.294 Y117.236 E0.75537
G1 X103.294 Y117.771 E0.01680
G1 X119.755 Y134.232 E0.73161
G1 X119.220 Y134.232 E0.01680
G1 X103.294 Y118.305 E0.70786
G1 X103.294 Y118.840 E0.01680
G1 X118.685 Y134.232 E0.68410
G1 X118.151 Y134.232 E0.01680
G1 X103.294 Y119.374 E0.66034
G1 X103.294 Y119.909 E0.01680
G1 X117.616 Y134.232 E0.63658
G1 X117.082 Y134.232 E0.01680
G1 X103.294 Y120.443 E0.61283
M73 Q24 S19
M73 P24 R19
G1 X103.294 Y120.978 E0.01680
G1 X116.547 Y134.232 E0.58907
G1 X116.013 Y134.232 E0.01680
G1 X103.294 Y121.513 E0.56531
G1 X103.294 Y122.047 E0.01680
G1 X115.478 Y134.232 E0.54155
G1 X114.944 Y134.232 E0.01680
G1 X103.294 Y122.582 E0.51780
G1 X103.294 Y123.116 E0.01680
G1 X114.409 Y134.232 E0.49404
G1 X113.875 Y134.232 E0.01680
G1 X103.294 Y123.651 E0.47028
G1 X103.294 Y124.185 E0.01680
G1 X113.340 Y134.232 E0.44652
G1 X112.806 Y134.232 E0.01680
G1 X103.294 Y124.720 E0.42276
G1 X103.294 Y125.254 E0.01680
G1 X112.271 Y134.232 E0.39901
G1 X111.737 Y134.232 E0.01680
G1 X103.294 Y125.789 E0.37525
G1 X103.294 Y126.323 E0.01680
G1 X111.202 Y134.232 E0.35149
G1 X110.668 Y134.232 E0.01680
G1 X103.294 Y126.858 E0.32773
G1 X103.294 Y127.392 E0.01680
G1 X110.133 Y134.232 E0.30398
G1 X109.599 Y134.232 E0.01680
G1 X103.294 Y127.927 E0.28022
G1 X103.294 Y128.461 E0.01680
G1 X109.064 Y134.232 E0.25646
G1 X108.529 Y134.232 E0.01680
G1 X103.294 Y128.996 E0.23270
G1 X103.294 Y129.530 E0.01680
G1 X107.995 Y134.232 E0.20895
G1 X107.460 Y134.232 E0.01680
G1 X103.294 Y130.065 E0.18519
G1 X103.294 Y130.599 E0.01680
G1 X106.926 Y134.232 E0.16143
G1 X106.391 Y134.232 E0.01680
G1 X103.294 Y131.134 E0.13767
G1 X103.294 Y131.669 E0.01680
G1 X105.857 Y134.232 E0.11391
G1 X105.322 Y134.232 E0.01680
G1 X103.294 Y132.203 E0.09016
G1 X103.294 Y132.738 E0.01680
G1 X104.788 Y134.232 E0.06640
G1 X104.253 Y134.232 E0.01680
G1 X103.294 Y133.272 E0.04264
G1 X103.294 Y133.807 E0.01680
G1 X103.888 Y134.401 E0.02643
M106 S255
;BEFORE_LAYER_CHANGE
G92 E0.0
;0.3


G1 F8640
G1 X103.294 Y133.807 E-0.19415
G1 X103.294 Y133.272 E-0.12342
G1 X104.253 Y134.232 E-0.31329
G1 X104.788 Y134.232 E-0.12342
G1 X104.770 Y134.214 E-0.00572
G1 E-0.04000 F2100.00000
G1 Z0.800 F10800.000
;AFTER_LAYER_CHANGE
;0.3
G1 X101.741 Y137.181
G1 Z0.300
G1 E0.80000 F2100.00000
G1 F3000
G1 X101.141 Y136.875 E0.01116
G1 X100.765 Y136.529 E0.00846
G1 X100.480 Y136.106 E0.00846
G1 X100.299 Y135.625 E0.00852
G1 X100.235 Y135.118 E0.00846
G1 X100.235 Y74.884 E0.99804
G1 X100.345 Y74.216 E0.01122
G1 X100.651 Y73.616 E0.01116
G1 X100.993 Y73.242 E0.00840
G1 X101.410 Y72.959 E0.00834
G1 X101.883 Y72.778 E0.00840
G1 X102.382 Y72.710 E0.00834
G1 X147.580 Y72.710 E0.74890
G1 X148.403 Y72.872 E0.01390
G1 X149.105 Y73.332 E0.01390
G1 X149.582 Y74.023 E0.01390
G1 X149.764 Y74.838 E0.01384
G1 X149.765 Y135.116 E0.99877
G1 X149.655 Y135.784 E0.01122
G1 X149.349 Y136.384 E0.01116
G1 X149.004 Y136.760 E0.00846
G1 X148.581 Y137.046 E0.00846
G1 X148.103 Y137.226 E0.00846
G1 X147.600 Y137.290 E0.00840
G1 X102.406 Y137.290 E0.74884
G1 X101.800 Y137.190 E0.01016
G1 F8640
G1 X101.141 Y136.875 E-0.16875
G1 X100.765 Y136.529 E-0.11788
G1 X100.480 Y136.106 E-0.11788
G1 X100.299 Y135.625 E-0.11872
G1 X100.235 Y135.118 E-0.11788
G1 X100.235 Y134.603 E-0.11889
G1 E-0.04000 F2100.00000
G1 Z0.900 F10800.000
G1 X103.078 Y134.448
G1 Z0.300
G1 E0.80000 F2100.00000
M204 S800
G1 F2700
G1 X103.078 Y75.552 E1.04932
G1 X146.922 Y75.552 E0.78117
G1 X146.922 Y134.448 E1.04932
G1 X103.138 Y134.448 E0.78010
M204 S1000
G1 X102.649 Y134.876 F10800.000
M204 S800
G1 F1500
G1 X102.649 Y75.124 E1.06459
G1 X147.351 Y75.124 E0.79644
